resources/images/modal/unban-dark.svg

<svg width="208" height="105" viewBox="0 0 208 105" xmlns="http://www.w3.org/2000/svg">
    <path
        d="M133.032 68.12L144.619 56.5336C146.98 54.1717 146.98 50.3423 144.619 47.9804L109.337 12.6985C106.975 10.3366 103.145 10.3366 100.783 12.6985L65.5015 47.9804C63.1396 50.3423 63.1396 54.1717 65.5015 56.5336L100.783 91.8155C103.145 94.1774 106.975 94.1774 109.337 91.8155L121.692 79.46M128.496 72.656L125.813 75.3392"
        stroke="#007DFF" stroke-width="2" stroke-linecap="round" stroke-linejoin="round" fill="none" />
    <circle cx="105.015" cy="52.0586" r="14" stroke="#007DFF" stroke-width="2" fill="none" />
    <path d="M114.5 43.3594L109.5 48.3594" stroke="#007DFF" stroke-width="2" stroke-linecap="round" fill="none" />
    <path d="M96.5 61.3594L101.5 56.3594" stroke="#007DFF" stroke-width="2" stroke-linecap="round" fill="none" />
    <path
        d="M91.074 15.9939L98.6452 8.42271C102.188 4.87986 107.932 4.87986 111.475 8.42271L148.895 45.8429C152.438 49.3858 152.438 55.1299 148.895 58.6727L111.475 96.0929C107.932 99.6358 102.188 99.6358 98.6452 96.0929L61.225 58.6727C57.6821 55.1299 57.6821 49.3858 61.225 45.8429L74.82 32.2479M88.05 19.0179L78.222 28.8459"
        stroke="#3C4249" stroke-width="2" stroke-linecap="round" stroke-linejoin="round" fill="none" />
    <path
        d="M30.5614 16.0038H32.5614V9.00382L39.5614 9.00382V7.00382L32.5614 7.00382V0.0038225L30.5614 0.00382232V7.00382L23.5614 7.00382V9.00382L30.5614 9.00382L30.5614 16.0038Z"
        fill="#3C4249" />
    <path
        d="M73.5614 104.004H75.5614V97.0038H82.5614L82.5614 95.0038H75.5614V88.0038H73.5614V95.0038H66.5614V97.0038H73.5614V104.004Z"
        fill="#3C4249" />
    <path
        d="M7.56006 104.002H9.56007L9.56007 97.0021H16.5601V95.0021H9.56007L9.56007 88.0021H7.56007L7.56007 95.0021H0.560059L0.560059 97.0021H7.56007L7.56006 104.002Z"
        fill="#3C4249" />
    <path
        d="M29.5601 104.002L31.5601 104.002L31.5601 97.0021H38.5601V95.0021H31.5601L31.5601 88.0021L29.5601 88.0021L29.5601 95.0021H22.5601V97.0021H29.5601L29.5601 104.002Z"
        fill="#3C4249" />
    <path
        d="M29.5601 82.0021L31.5601 82.0021L31.5601 75.0021H38.5601V73.0021H31.5601L31.5601 66.0021L29.5601 66.0021L29.5601 73.0021H22.5601V75.0021H29.5601L29.5601 82.0021Z"
        fill="#3C4249" />
    <path
        d="M52.0601 82.0021H54.0601V75.0021H61.0601V73.0021H54.0601V66.0021H52.0601V73.0021H45.0601V75.0021H52.0601V82.0021Z"
        fill="#3C4249" />
    <path
        d="M52.0598 16.002H54.0598V9.00195H61.0598V7.00195L54.0598 7.00195V0.0019533L52.0598 0.00195312V7.00195L45.0598 7.00195V9.00195H52.0598V16.002Z"
        fill="#3C4249" />
    <path
        d="M52.06 38.002H54.06V31.002L61.06 31.002V29.002H54.06V22.002H52.06V29.002L45.06 29.002V31.002L52.06 31.002V38.002Z"
        fill="#3C4249" />
    <path
        d="M73.56 16.002H75.56L75.56 9.00198L82.56 9.00198V7.00198L75.56 7.00198V0.00198185L73.56 0.0019815V7.00198L66.56 7.00198V9.00198L73.56 9.00198V16.002Z"
        fill="#3C4249" />
    <path
        d="M177.443 16.0001H175.443V9.00013L168.443 9.00013V7.00013L175.443 7.00013V0.00013123L177.443 0.000131405V7.00013L184.443 7.00013V9.00013L177.443 9.00013V16.0001Z"
        fill="#3C4249" />
    <path
        d="M134.442 104H132.442L132.442 97.0001H125.442L125.442 95.0001H132.442L132.442 88.0001H134.442L134.442 95.0001H141.442V97.0001H134.442L134.442 104Z"
        fill="#3C4249" />
    <path d="M200.44 104H198.44V97.0001H191.44V95.0001H198.44V88.0001H200.44V95.0001H207.44V97.0001H200.44V104Z"
        fill="#3C4249" />
    <path d="M178.44 104H176.44V97.0001H169.44V95.0001H176.44V88.0001H178.44V95.0001H185.44V97.0001H178.44V104Z"
        fill="#3C4249" />
    <path d="M178.44 82.0002H176.44V75.0002H169.44V73.0002H176.44V66.0002H178.44V73.0002H185.44V75.0002H178.44V82.0002Z"
        fill="#3C4249" />
    <path d="M155.94 82.0002H153.94V75.0002H146.94V73.0002H153.94V66.0002H155.94V73.0002H162.94V75.0002H155.94V82.0002Z"
        fill="#3C4249" />
    <path d="M155.941 16H153.941V9L146.941 9V7L153.941 7V0L155.941 1.78814e-07V7L162.941 7V9L155.941 9V16Z"
        fill="#3C4249" />
    <path d="M155.94 38H153.94V31H146.94V29L153.94 29V22H155.94V29H162.94V31H155.94V38Z" fill="#3C4249" />
    <path
        d="M134.44 16H132.44V9.00002L125.44 9.00002V7.00002L132.44 7.00002V2.47955e-05H134.44V7.00002H141.44V9.00002H134.44V16Z"
        fill="#3C4249" />
</svg>

<svg width="208" height="105" xmlns="http://www.w3.org/2000/svg"><path d="m133.032 68.12 11.587-11.586a6.05 6.05 0 0 0 0-8.554l-35.282-35.282a6.049 6.049 0 0 0-8.554 0L65.501 47.98a6.048 6.048 0 0 0 0 8.554l35.282 35.282a6.049 6.049 0 0 0 8.554 0l12.355-12.356m6.804-6.804-2.683 2.683" stroke="#007DFF" stroke-width="2" stroke-linecap="round" stroke-linejoin="round" fill="none"/><circle cx="105.015" cy="52.059" r="14" stroke="#007DFF" stroke-width="2" fill="none"/><path d="m114.5 43.36-5 5M96.5 61.36l5-5" stroke="#007DFF" stroke-width="2" stroke-linecap="round" fill="none"/><path d="m91.074 15.994 7.571-7.571a9.072 9.072 0 0 1 12.83 0l37.42 37.42a9.072 9.072 0 0 1 0 12.83l-37.42 37.42a9.072 9.072 0 0 1-12.83 0l-37.42-37.42a9.072 9.072 0 0 1 0-12.83L74.82 32.248m13.23-13.23-9.828 9.828" stroke="#3C4249" stroke-width="2" stroke-linecap="round" stroke-linejoin="round" fill="none"/><path d="M30.561 16.004h2v-7h7v-2h-7v-7h-2v7h-7v2h7v7ZM73.561 104.004h2v-7h7v-2h-7v-7h-2v7h-7v2h7v7ZM7.56 104.002h2v-7h7v-2h-7v-7h-2v7h-7v2h7v7ZM29.56 104.002h2v-7h7v-2h-7v-7h-2v7h-7v2h7v7ZM29.56 82.002h2v-7h7v-2h-7v-7h-2v7h-7v2h7v7ZM52.06 82.002h2v-7h7v-2h-7v-7h-2v7h-7v2h7v7ZM52.06 16.002h2v-7h7v-2h-7v-7h-2v7h-7v2h7v7ZM52.06 38.002h2v-7h7v-2h-7v-7h-2v7h-7v2h7v7ZM73.56 16.002h2v-7h7v-2h-7v-7h-2v7h-7v2h7v7ZM177.443 16h-2V9h-7V7h7V0h2v7h7v2h-7v7ZM134.442 104h-2v-7h-7v-2h7v-7h2v7h7v2h-7v7ZM200.44 104h-2v-7h-7v-2h7v-7h2v7h7v2h-7v7ZM178.44 104h-2v-7h-7v-2h7v-7h2v7h7v2h-7v7ZM178.44 82h-2v-7h-7v-2h7v-7h2v7h7v2h-7v7ZM155.94 82h-2v-7h-7v-2h7v-7h2v7h7v2h-7v7ZM155.941 16h-2V9h-7V7h7V0h2v7h7v2h-7v7ZM155.94 38h-2v-7h-7v-2h7v-7h2v7h7v2h-7v7ZM134.44 16h-2V9h-7V7h7V0h2v7h7v2h-7v7Z" fill="#3C4249"/></svg>
